X: 15610
T: Goat That Ate The Cabbage Plants, The
R: jig
M: 6/8
K: Aminor
e/d/|"Am"cAB "C"cde|"Dm"dcA "Am"AGE|"Am"AGA "C"cde|"Am"cAG A2 e/d/|
"Am"cAB "C"cde|"Dm"dcd "C"e^fg|"Am"age "G"ded|"Am"cAG A2:|
g|"Am"age "C"cde|"G"ged "Am"ecA|"C"cde "G"ged|"C"edc "Dm"Acd|
"Am"eag age|"G"ged "C"cde|"Dm"fed "Am"ecA|"G"BAG "Am"A2:|

